img/social/YandexZen.svg

<svg width="24" height="24" viewBox="0 0 24 24" fill="none" xmlns="http://www.w3.org/2000/svg">
<g clip-path="url(#clip0_573_6680)">
<path d="M14.25 14.2499C12.4167 16.1416 12.2833 18.4999 12.125 23.6666C16.9417 23.6666 20.2667 23.6499 21.9833 21.9833C23.65 20.2666 23.6667 16.7833 23.6667 12.1249C18.5 12.2916 16.1417 12.4166 14.25 14.2499ZM0.333332 12.1249C0.333332 16.7833 0.349999 20.2666 2.01667 21.9833C3.73333 23.6499 7.05833 23.6666 11.875 23.6666C11.7083 18.4999 11.5833 16.1416 9.75 14.2499C7.85833 12.4166 5.5 12.2833 0.333332 12.1249ZM11.875 0.333252C7.06667 0.333252 3.73333 0.349919 2.01667 2.01659C0.349999 3.73325 0.333332 7.21659 0.333332 11.8749C5.5 11.7083 7.85833 11.5833 9.75 9.74992C11.5833 7.85825 11.7167 5.49992 11.875 0.333252ZM14.25 9.74992C12.4167 7.85825 12.2833 5.49992 12.125 0.333252C16.9417 0.333252 20.2667 0.349919 21.9833 2.01659C23.65 3.73325 23.6667 7.21659 23.6667 11.8749C18.5 11.7083 16.1417 11.5833 14.25 9.74992Z" fill="white"/>
</g>
<defs>
<clipPath id="clip0_573_6680">
<rect width="23.3333" height="23.3333" fill="white" transform="translate(0.333332 0.333252)"/>
</clipPath>
</defs>
</svg>

<svg width="24" height="24" fill="none" xmlns="http://www.w3.org/2000/svg"><g clip-path="url(#a)"><path d="M14.25 14.25c-1.833 1.892-1.967 4.25-2.125 9.417 4.817 0 8.142-.017 9.858-1.684 1.667-1.716 1.684-5.2 1.684-9.858-5.167.167-7.525.292-9.417 2.125ZM.333 12.125c0 4.658.017 8.142 1.684 9.858 1.716 1.667 5.041 1.684 9.858 1.684-.167-5.167-.292-7.525-2.125-9.417-1.892-1.833-4.25-1.967-9.417-2.125ZM11.875.333c-4.808 0-8.142.017-9.858 1.684C.35 3.733.333 7.217.333 11.875c5.167-.167 7.525-.292 9.417-2.125 1.833-1.892 1.967-4.25 2.125-9.417ZM14.25 9.75C12.417 7.858 12.283 5.5 12.125.333c4.817 0 8.142.017 9.858 1.684 1.667 1.716 1.684 5.2 1.684 9.858-5.167-.167-7.525-.292-9.417-2.125Z" fill="#fff"/></g><defs><clipPath id="a"><path fill="#fff" transform="translate(.333 .333)" d="M0 0h23.333v23.333H0z"/></clipPath></defs></svg>
